ui/StatusQ/src/assets/img/icons/network/Network=Status.svg

<svg fill="none" height="40" viewBox="0 0 40 40" width="40" xmlns="http://www.w3.org/2000/svg" xmlns:xlink="http://www.w3.org/1999/xlink"><clipPath id="a"><rect height="40" rx="20" width="40"/></clipPath><g clip-path="url(#a)"><rect fill="#7140fd" height="40" rx="20" width="40"/><path clip-rule="evenodd" d="m25.019 10.9888c-.2394.3401-.4446.7019-.6102 1.0852-.0791.1836-.1529.3618-.2159.5363-.2268.6101-.369 1.1663-.5111 1.7242l-.0066.0253c-.1813.7061-.3631 1.4135-.7205 2.2333-.1656.3816-.369.7487-.6066 1.0925-.009.0144-.0197.0288-.0305.0414-.0071.0106-.015.0213-.0221.0309h-.0001l-.0102.0141c3.1891.9052 6.7544-.297 8.0484-3.2468.7955-1.8105.3527-4.0782-1.4434-4.86104-1.4452-.62991-2.8634-.11338-3.8694 1.32464zm-17.57982 9.0327c.13498-.3941.30956-.7721.52193-1.1302.10258-.1728.20337-.3348.30775-.4896.36175-.5417.72889-.9826 1.09784-1.4253l.03439-.0415c.46014-.5549.92161-1.1113 1.36941-1.8717.2124-.3581.3905-.7379.5291-1.1302l.0081-.0252.0081-.0252c.0054-.0198.0108-.0378.0162-.0522 2.6024 2.0535 3.7165 5.6476 2.0859 8.4228-1.0006 1.7061-3.0973 2.6762-4.78369 1.6791-1.357-.8009-1.76914-2.2532-1.19503-3.9108zm24.43592 6.9203c-3.442 0-6.2321-2.7901-6.2321-6.2321h-3.6398c0 5.4522 4.4197 9.8719 9.8719 9.8719zm-11.8823-6.2321c0 5.4522-4.4197 9.8719-9.8719 9.8719v-3.6398c3.442 0 6.2321-2.7901 6.2321-6.2321zm-.0023-.0016v-11.018h-3.6398v11.018z" fill="#fff" fill-rule="evenodd"/></g><rect height="39" rx="19.5" stroke="#1b273d" stroke-opacity=".05" width="39" x=".5" y=".5"/></svg>

<svg width="40" height="40" viewBox="0 0 40 40" fill="none" xmlns="http://www.w3.org/2000/svg">
<g clip-path="url(#clip0_5880_106)">
<rect width="40" height="40" rx="20" fill="#7140FD"/>
<path fill-rule="evenodd" clip-rule="evenodd" d="M25.019 10.9888C24.7796 11.3289 24.5744 11.6907 24.4088 12.074C24.3297 12.2576 24.2559 12.4358 24.1929 12.6103C23.9661 13.2204 23.8239 13.7766 23.6818 14.3345L23.6752 14.3598C23.4939 15.0659 23.3121 15.7733 22.9547 16.5931C22.7891 16.9747 22.5857 17.3418 22.3481 17.6856C22.3391 17.7 22.3284 17.7144 22.3176 17.727C22.3105 17.7376 22.3026 17.7483 22.2955 17.7579L22.2955 17.7579L22.2954 17.7579L22.2852 17.772C25.4743 18.6772 29.0396 17.475 30.3336 14.5252C31.1291 12.7147 30.6863 10.447 28.8902 9.66416C27.445 9.03425 26.0268 9.55078 25.0208 10.9888H25.019ZM7.43918 20.0215C7.57416 19.6274 7.74874 19.2494 7.96111 18.8913C8.06369 18.7185 8.16448 18.5565 8.26886 18.4017C8.63061 17.86 8.99775 17.4191 9.3667 16.9764L9.40109 16.9349C9.86123 16.38 10.3227 15.8236 10.7705 15.0632C10.9829 14.7051 11.161 14.3253 11.2996 13.933L11.3077 13.9078L11.3158 13.8826C11.3212 13.8628 11.3266 13.8448 11.332 13.8304C13.9344 15.8839 15.0485 19.478 13.4179 22.2532C12.4173 23.9593 10.3206 24.9294 8.63421 23.9323C7.27721 23.1314 6.86507 21.6791 7.43918 20.0215ZM31.8751 26.9418C28.4331 26.9418 25.643 24.1517 25.643 20.7097H22.0032C22.0032 26.1619 26.4229 30.5816 31.8751 30.5816V26.9418ZM19.9928 20.7097C19.9928 26.1619 15.5731 30.5816 10.1209 30.5816V26.9418C13.5629 26.9418 16.353 24.1517 16.353 20.7097H19.9928ZM19.9905 20.7081V9.6901H16.3507V20.7081H19.9905Z" fill="white"/>
</g>
<rect x="0.5" y="0.5" width="39" height="39" rx="19.5" stroke="#1B273D" stroke-opacity="0.05"/>
<defs>
<clipPath id="clip0_5880_106">
<rect width="40" height="40" rx="20" fill="white"/>
</clipPath>
</defs>
</svg>
